X:1
T:Held in His Mighty Arms
T:Winfield Macomber (1865-1896)
T:Held in His Mighty Arms
T:Public Domain
T:Public Domain
C:Winfield Macomber (1865-1896)
Z:Public Domain
%%score ( 1 2 ) ( 3 4 )
L:1/8
M:6/8
K:F
V:1 treble 
V:2 treble 
V:3 bass 
V:4 bass 
V:1
 [FA]>[FA][FA] (AB)[FA] | [DA][DG][B,D] [DG]3 | [EG]>[EG][EG] [E-G][EA][EG] | [CG][CF]C [CF]3 | %4
w: 1.~Safe is my ref- * uge,|is my rest, Ill|can- not harm~me, nor * foes|e’er mo- lest; Je-|
w: 2.~Press- ing my tear * stained|to His own, Hush-|ing my grief~with His * sweet|gen- tle tone; Touch-|
w: 3.~Tem- pests may rage, * sin’s|es may beat, Ne’er|can they reach my * shel-|tered re- treat; Free|
 [FA]>[FA][FA] [FA][FB][Fc] | [D-c][DB]>D [D-A]2 [DG] | [CF][CE][CF] [Fc][FA][CF] | %7
w: my spir- it so tender- ly|calms, * Hold- ing *|close in His might- y arms.|
w: my heart with His heal- ing|balms, * Hold- ing *|still in His might- y arms.|
w: all dan- ger, from dread a-|larms, * Rest- ing *|safe in His might- y arms.|
 (EF)[CG] [CF]3 ||"^Refrain" [Ac]2 [Ac] [Ac][GB][FA] | [Ec]>[EG][EG] [EG]3 | %10
w: |||
w: |||
w: |||
 [GB]>[GB][GB] [GB][Ac][Bd] | [Ac]>[FA][FA] [FA]3 | [FA]>[FA][FA] [FA][FB][Fc] | %13
w: |||
w: |||
w: |||
 [Dc][DB]>D [D-A]2 [DG] | [CF][CE][CF] [Fc][FA][CF] | (EF)[CG] [CF]6 |] %16
w: |||
w: |||
w: |||
V:2
 x3 F2 x | x6 | x6 | x2 C x3 | x6 | x5/2 D/ x3 | x6 | C2 x4 || x6 | x6 | x6 | x6 | x6 | %13
w: sweet|||sus||me||||||||
w: cheek|||ing||me||||||||
w: surg-|||from||so||||||||
 x5/2 D/ x3 | x6 | C2 x7 |] %16
w: |||
w: |||
w: |||
V:3
 [F,C]>[F,C][F,C] (CD)[F,C] | [B,,B,][B,,B,][B,,F,] [B,,B,]3 | %2
w: ~ ~ ~ ~ * ~|~ ~ ~ ~|
 [C,B,]>[C,B,][C,B,] [C,-B,][C,C][C,B,] | [F,B,][F,A,][F,A,] [F,A,]3 | %4
w: ~ ~ ~ ~ * ~|~ ~ ~ ~|
 [F,C]>[F,C][F,C] [F,C][F,D][F,A,] | [B,,B,]-[B,,B,]>[B,,F,] [B,,-D]2 [B,,B,] | %6
w: ~ ~ ~ ~ ~ ~|~ * ~ ~ *|
 [C,A,][C,G,][C,A,] [C,A,][C,C][C,A,] | (G,A,)[C,B,] [F,A,]3 || [F,C]2 [F,C] [F,C][F,C][F,C] | %9
w: ~ ~ ~ ~ ~ ~|~ * ~ Oh!|won- der- ful, won- der-|
 [C,C]>[C,C][C,C] [C,C]3 | [C,C]>[C,C][C,C] [C,C][C,C][C,C] | [F,C]>[F,C][F,C] [F,C]3 | %12
w: ful rest! Trust- ing|com- plete- ly in Je- sus|I’m blest; Sweet- ly|
 [F,C]>[F,C][F,C] [F,C][F,D][F,A,] | [B,,B,][B,,B,]>[B,,F,] [B,,-C]2 [B,,B,] | %14
w: He com- forts and shields from|a- larms, Hold- ing *|
 [C,A,][C,G,][C,A,] [C,A,][C,C][C,A,] | (G,A,)[C,B,] [F,A,]6 |] %16
w: me safe in His might- y|arms. * * *|
V:4
 x3 F,2 x | x6 | x6 | x6 | x6 | x6 | x6 | C,2 x4 || x6 | x6 | x6 | x6 | x6 | x6 | x6 | C,2 x7 |] %16
w: ~|||||||what|||||||||

